flaticon/army-badges/badge-1.svg

<svg xmlns="http://www.w3.org/2000/svg" width="32" height="32" viewBox="0 0 24 24">
    <path d="M 22.515625 13.589844 L 23.917969 11.871094 C 23.996094 11.75 24.035156 11.550781 23.957031 11.429688 C 23.875 11.269531 23.757812 11.191406 23.597656 11.191406 L 19.597656 11.191406 L 19.597656 9.992188 C 19.597656 9.75 19.4375 9.589844 19.199219 9.589844 L 18.523438 9.589844 C 18.683594 8.671875 18.804688 7.75 18.839844 6.832031 C 18.839844 6.671875 18.757812 6.550781 18.636719 6.472656 L 12.238281 2.472656 C 12.078125 2.394531 11.921875 2.394531 11.800781 2.472656 L 5.402344 6.472656 C 5.28125 6.550781 5.203125 6.671875 5.203125 6.832031 C 5.234375 7.71875 5.328125 8.664062 5.503906 9.589844 L 4.800781 9.589844 C 4.5625 9.589844 4.402344 9.75 4.402344 9.992188 L 4.402344 11.191406 L 0.402344 11.191406 C 0.242188 11.191406 0.125 11.308594 0.0429688 11.390625 C -0.0351562 11.550781 0.00390625 11.710938 0.0820312 11.828125 L 1.484375 13.589844 L 0.0820312 15.308594 C 0.00390625 15.429688 -0.0351562 15.628906 0.0429688 15.75 C 0.125 15.910156 0.242188 15.988281 0.402344 15.988281 L 6 15.988281 C 6.242188 15.988281 6.402344 15.828125 6.402344 15.589844 L 6.402344 14.390625 L 6.929688 14.390625 C 7.878906 16.589844 9.128906 18.601562 10.71875 20.386719 L 11.679688 21.46875 C 11.761719 21.546875 11.878906 21.585938 12 21.585938 C 12.121094 21.585938 12.238281 21.546875 12.28125 21.46875 L 13.238281 20.386719 C 14.832031 18.601562 16.082031 16.589844 17.03125 14.390625 L 17.597656 14.390625 L 17.597656 15.589844 C 17.597656 15.828125 17.757812 15.988281 18 15.988281 L 23.597656 15.988281 C 23.757812 15.988281 23.875 15.910156 23.957031 15.789062 C 24.035156 15.628906 23.996094 15.46875 23.917969 15.347656 Z M 6 7.03125 L 12 3.273438 L 18 6.992188 C 17.957031 7.871094 17.839844 8.710938 17.679688 9.589844 L 16.828125 9.589844 C 16.964844 8.949219 17.054688 8.3125 17.117188 7.671875 C 17.117188 7.550781 17.039062 7.390625 16.917969 7.3125 L 12.199219 4.351562 C 12.039062 4.273438 11.878906 4.273438 11.761719 4.351562 L 7.042969 7.3125 C 6.882812 7.390625 6.839844 7.511719 6.839844 7.671875 C 6.90625 8.3125 7.019531 8.949219 7.144531 9.589844 L 6.363281 9.589844 C 6.160156 8.75 6.082031 7.871094 6 7.03125 Z M 7.679688 7.832031 L 12 5.152344 L 16.277344 7.832031 C 16.199219 8.429688 16.117188 8.992188 16 9.589844 L 7.960938 9.589844 C 7.839844 9.03125 7.761719 8.429688 7.679688 7.832031 Z M 5.203125 10.390625 L 18.796875 10.390625 L 18.796875 13.589844 L 15.160156 13.589844 C 15.109375 13.5625 15.050781 13.550781 15 13.550781 L 8.960938 13.550781 C 8.910156 13.550781 8.859375 13.5625 8.8125 13.589844 L 5.203125 13.589844 Z M 14.398438 14.390625 C 13.71875 15.75 12.917969 16.988281 12 18.148438 C 11.082031 16.988281 10.242188 15.75 9.601562 14.390625 Z M 5.601562 15.1875 L 1.242188 15.1875 L 2.324219 13.828125 C 2.441406 13.710938 2.441406 13.507812 2.324219 13.347656 L 1.242188 11.988281 L 4.402344 11.988281 L 4.402344 13.988281 C 4.402344 14.230469 4.5625 14.390625 4.800781 14.390625 L 5.601562 14.390625 Z M 12.679688 19.828125 L 12 20.585938 L 11.320312 19.828125 C 9.921875 18.1875 8.722656 16.386719 7.839844 14.390625 L 8.710938 14.390625 C 9.496094 16.09375 10.496094 17.652344 11.679688 19.027344 C 11.761719 19.148438 11.878906 19.1875 12 19.1875 C 12.121094 19.1875 12.238281 19.109375 12.28125 19.027344 C 13.464844 17.617188 14.464844 16.058594 15.246094 14.390625 L 16.160156 14.390625 C 15.277344 16.386719 14.121094 18.1875 12.679688 19.828125 Z M 18.398438 15.1875 L 18.398438 14.390625 L 19.199219 14.390625 C 19.4375 14.390625 19.597656 14.230469 19.597656 13.988281 L 19.597656 11.988281 L 22.757812 11.988281 L 21.675781 13.347656 C 21.558594 13.46875 21.558594 13.667969 21.675781 13.828125 L 22.757812 15.1875 Z M 18.398438 15.1875"/>
</svg>

<svg xmlns="http://www.w3.org/2000/svg" width="32" height="32" viewBox="0 0 24 24">
    <path d="M22.516 13.59l1.402-1.719c.078-.121.117-.32.039-.441-.082-.16-.2-.239-.36-.239h-4V9.992c0-.242-.16-.402-.398-.402h-.676c.16-.918.282-1.84.317-2.758a.417.417 0 0 0-.203-.36l-6.399-4c-.16-.077-.316-.077-.437 0l-6.399 4c-.12.079-.199.2-.199.36.031.887.125 1.832.3 2.758h-.702c-.239 0-.399.16-.399.402v1.2h-4c-.16 0-.277.117-.359.199-.078.16-.04.32.039.437l1.402 1.762-1.402 1.719c-.078.12-.117.32-.039.441.082.16.2.238.36.238H6c.242 0 .402-.16.402-.398v-1.2h.528c.949 2.2 2.199 4.212 3.789 5.997l.96 1.082c.083.078.2.117.321.117s.238-.04.281-.117l.957-1.082c1.594-1.785 2.844-3.797 3.793-5.996h.567v1.199c0 .238.16.398.402.398h5.598c.16 0 .277-.078.359-.199a.44.44 0 0 0-.039-.441zM6 7.03l6-3.758 6 3.72c-.043.878-.16 1.718-.32 2.597h-.852a17.1 17.1 0 0 0 .29-1.918.467.467 0 0 0-.2-.36l-4.719-2.96c-.16-.079-.32-.079-.437 0l-4.719 2.96c-.16.079-.203.2-.203.36.066.64.18 1.277.305 1.918h-.782C6.16 8.75 6.082 7.87 6 7.03zm1.68.801L12 5.152l4.277 2.68c-.078.598-.16 1.16-.277 1.758H7.96c-.12-.559-.198-1.16-.28-1.758zm-2.477 2.559h13.594v3.199H15.16a.346.346 0 0 0-.16-.04H8.96a.291.291 0 0 0-.148.04H5.204zm9.195 4A21.562 21.562 0 0 1 12 18.148c-.918-1.16-1.758-2.398-2.398-3.757zm-8.796.796h-4.36l1.082-1.359c.117-.117.117-.32 0-.48l-1.082-1.36h3.16v2c0 .242.16.403.399.403h.8zm7.078 4.641l-.68.758-.68-.758c-1.398-1.64-2.597-3.441-3.48-5.437h.87a19.811 19.811 0 0 0 2.97 4.636c.082.121.199.16.32.16a.337.337 0 0 0 .281-.16 21.218 21.218 0 0 0 2.965-4.636h.914a21.108 21.108 0 0 1-3.48 5.437zm5.718-4.64v-.797h.801c.238 0 .399-.16.399-.403v-2h3.16l-1.082 1.36c-.117.12-.117.32 0 .48l1.082 1.36zm0 0"/>
</svg>
